!!! OTL: Berkowitz609
!!! Chapter: 1
!!! Section: V
!!! Page: 155
!!! Mode: 
!!! Encoder: AR
**kern
*staff1
=1-
!!pagebreak:original
*clefC4
*k[]
*C:
*M6/4
4C/
4A-\
4A-\
2G-/
4B-\
=2
2E/
4D/
2.Bn\
=3
2A\
4C#/
4BB-/
4A\
4G/
=4
2A-\
4Cn/
2AAn/
4r
=5
!!linebreak:original
2BB-/
4G/
2E/
4F#/
=6
4c#\
4Bn\
4G/
4c#\
4B\
4G/
=7
4B-\
4E-/
4E-/
2.E-/
=8
2.r
4En/
4D/
4F/
=9
2.D-/
4E/
4E-/
4F/
=10
!!linebreak:original
4Dn/
4B\
4B\
2.G#/
=11
4B-\
4D-/
4D-/
2E/
4Dn/
=12
2C/
4A-\
4G/
4E/
4C/
=13
[2.BB-/
2BB-/]
4r
==
*-
